icons-common/electrical-plug.svg

<svg height="1em" width="auto" viewBox="0 0 105 105" fill="currentColor" xmlns="http://www.w3.org/2000/svg">
    <path d="M63.907 84.916H41.9221C33.12 84.916 25.9146 77.2818 25.9146 67.8589V56.8656C25.9146 47.4864 33.0791 39.8086 41.9221 39.8086H63.9479C72.75 39.8086 79.9555 47.4428 79.9555 56.8656V67.8589C79.9555 77.2381 72.791 84.916 63.9479 84.916H63.907ZM41.9221 47.4864C37.0503 47.4864 33.0791 51.718 33.0791 56.9093V67.9026C33.0791 73.0938 37.0503 77.3254 41.9221 77.3254H63.9479C68.8198 77.3254 72.791 73.0938 72.791 67.9026V56.9093C72.791 51.718 68.8198 47.4864 63.9479 47.4864H41.9221Z"
          />
    <path d="M63.1293 44.3019C62.3924 44.3019 61.6964 44.1274 60.9595 43.8221C60.1407 43.4294 59.4856 42.9496 58.9125 42.557L58.585 42.2952V24.8019C58.585 22.0972 60.632 19.916 63.1703 19.916C65.7085 19.916 67.7146 22.0972 67.7146 24.8019V42.1643L67.3871 42.4261C66.732 42.9932 66.0361 43.4294 65.2991 43.7784C64.6441 44.0838 63.9072 44.2583 63.1293 44.2583V44.3019Z"
          />
    <path d="M42.6181 44.3019C41.8812 44.3019 41.1852 44.1274 40.4483 43.8221C39.6295 43.4294 38.9744 42.9496 38.4013 42.557L38.0737 42.2952V24.8019C38.0737 22.0972 40.1207 19.916 42.659 19.916C45.1973 19.916 47.2034 22.0972 47.2034 24.8019V42.1643L46.8759 42.4261C46.2208 42.9932 45.5248 43.4294 44.7879 43.7784C44.1329 44.0838 43.3959 44.2583 42.6181 44.2583V44.3019Z"
          />
</svg>

<svg xmlns="http://www.w3.org/2000/svg" width="auto" height="1em" fill="currentColor" viewBox="0 0 105 105">
    <path d="M63.907 84.916H41.922c-8.802 0-16.007-7.634-16.007-17.057V56.866c0-9.38 7.164-17.057 16.007-17.057h22.026c8.802 0 16.008 7.634 16.008 17.057v10.993c0 9.38-7.165 17.057-16.008 17.057zm-21.985-37.43c-4.872 0-8.843 4.232-8.843 9.423v10.994c0 5.19 3.971 9.422 8.843 9.422h22.026c4.872 0 8.843-4.231 8.843-9.422V56.909c0-5.191-3.971-9.423-8.843-9.423z"/>
    <path d="M63.13 44.302c-.738 0-1.434-.175-2.17-.48-.82-.393-1.474-.872-2.047-1.265l-.328-.262V24.802c0-2.705 2.047-4.886 4.585-4.886s4.545 2.181 4.545 4.886v17.362l-.328.262a9 9 0 0 1-2.088 1.352 5.1 5.1 0 0 1-2.17.48zm-20.512 0c-.737 0-1.433-.175-2.17-.48-.819-.393-1.474-.872-2.047-1.265l-.327-.262V24.802c0-2.705 2.047-4.886 4.585-4.886s4.544 2.181 4.544 4.886v17.362l-.327.262a9 9 0 0 1-2.088 1.352 5.1 5.1 0 0 1-2.17.48z"/>
</svg>
